X:1
T:O sventurati Amanti
T:Luca Marenzio
T:Source : Il secondo Libro delle canzonette alla Napolitana a tre voci---Venetia---G.Vincenti---1587. Editor : André Vierendeels (01/05/17).
T:Notes : Original clefs :  G2, C1, F3 Editorial accidentals above the staff "Seconda impressione" Music collected by Attilio Gualtieri m 4 in S 1: "F" notated as quarter in original print m 14 in S 1 : "B" notated as half note in original print
T:O sventurati Amanti
T:©
T:©
C:Luca Marenzio
Z:©
%%score [ 1 2 3 ]
L:1/8
Q:1/4=120
M:4/4
K:C
V:1 treble nm="Soprano 1" snm="S 1"
V:2 treble nm="Soprano 2" snm="S 2"
V:3 bass nm="Bass" snm="B"
V:1
"^1)" e8 | e3 e e2 f2 | e4 e4 | g2 f4 e2 | d2 c2 d4 |[M:2/4] c4 :| z2 e2 |[M:4/4] g3 g g2 f2 | %8
w: O|sven- ti- ra- ti'A-|man- ti,|ben scioc- chi|tutt- ti quan-|ti|che|per un vis' a-|
w: Di-|te di gra- tia|vo- i,|che ne ca-|va- te po-|i,|Quan-|to'il sug- get- to'è|
 e4 e2 B2 |"^-natural" d3 c d2 e2 | d8 | d8 | f2 e4 d2 | c2 B2 d4 | A4 z4 | z2 d2 e2 f2 | g6 f2 | %17
w: dor- no pe-|na- te not- te|gior-|no,|il di con|pas- seg- gia-|te,|e poi la|notte con|
w: al- to, non|si puo far il|sal-|to;|E s'al- cun|nuol sal- ta-|re|'a- ris- chio|per il|
 e2 e2 d3 c | B8 | A8 :| %20
w: le se- re- *|na-|te.|
w: sal- to di cre-|pa-|re.|
V:2
"^2)""^1)" c8 | c3 B ^c2 d2 | ^c4 c4 | e2 A4 c2 | B2 c4 B2 |[M:2/4] c4 :| z2 e2 | %7
w: O|sven- tu- ra- ti'A-|man- ti,|ben scioc- chi|tut- ti quan-|ti,|che|
w: Que-|sto ch'ho- ra vi|di- co,|e con- se-|glio d'a- mi-|co,|gi-|
[M:4/4] e3 d e2 d2 | ^c4 c2 d2 | B3 A B2 c2 | B8 | B8 | A2 c4 B2 | A2 G2 ^F4 | ^F2 F2 G2 A2 | %15
w: per un vis' a-|dor- no pe-|na- te not- te|gior-|no,|il di con|pas- seg- gia-|te, e poi la|
w: te'al- le cor- te-|gia- ne, che|le stra- de son|pia-|ne,|do- ve sen-|za pa- u-|ra, vi si po|
 B6 A2 | G4 G4 | c4 B2 A2- | A2 ^G^F G4 | A8 :| %20
w: not- te|con le|se- re- na-||te.|
w: gir di|gior- no'e|nott' os- cu-||ra.|
V:3
"^3)""^1)""^4)" A,8 | A,3 G, A,2 D,2 | A,4 A,4 | E,2 F,4 C,2 | G,2 A,2 G,4 |[M:2/4] C,4 :| C4 | %7
w: O|sven- tu- ra- ti'A-|man- ti,|ben scioc- chi|tut- ti quan-|ti,|che|
w: E|las- sa- re- te|que- ste,|Don- ne, che|son ho- nes-|te,|che|
[M:4/4] C3 B, C2 D2 | A,4 A,2 G,2 | G,3 A, G,2 C,2 | G,8 | G,8 | D,2 A,4 G,2 | F,2 E,2 D,4 | %14
w: per un vis' a-|dor- no pe-|na- te not- te|gior-|no,|il di con|pas- seg- gia-|
w: men- tre di- te'io|mo- ro, stan|co'i ma- ro- ti|lo-|ro;|E quan- do|voi can- ta-|
"^-natural" D,2 D,2 E,2 F,2 | G,6 F,2 | E,2 D,2 C,4- | C,4 D,4 | E,8 | A,,8 :| %20
w: te, e poi la|not- te|con le se-|* re-|na-|te.|
w: te, so- no da|que- gli'all'|hor- stret- to|_ brac-|cia-|te.|

